X:1
T:Tzadik Katamar
O:Israel
M:C|
L:1/8
K:Em
P:Intro
B|"Am"cccB "D"AG/A/ FA|"G"BBBA "D"GF/G/ EG|"B7"FE^D^C DB,DF|"Em"E2z2z2zB,|
P:A
|:"Em"EE/F/ GE "B"^DEFB,|"Em"EE/F/ GE "B"B3B,|"Em"EE/F/ GE "B"^DEFB,|"Em"EE/F/ GE"E7"B3B|
P:B
"Am"cccB "D"AG/A/ FA|"G"BBBA "C"GF/G/ EG|"B"FE^D^C DB,DF|"Em"B4"E7"z2zB|
"Am"cccB "D"AG/A/ FA|"G"BBBA "C"GF/G/ EG|"B"FE^D^C DB,DF|1"Em"E4z2zB,:|2"Em"E4z2zE||
P:C
K:C
|:"Am"AA/B/ cA "E"^GABE|"Am"AA/B/ cA "E"ez2z|"Am"AA/B/ cA "E"^GABE|"Am"AA/B/ cA "A7"ez2e|
P:D
"Dm"fffe "G"dc/d/ Bd|"C"eeed "F"cB/c/ Ac|"E7"BA^G^F GEGB|"Am"e4"A7"z2ze|
"Dm"fffe "G"dc/d/ Bd|"C"eeed "F"cB/c/ Ac|"E7"BA^G^F GEGB|1,2"Am"A4z2E:|3"LastTime" "Am"A4z2.A2|]

